icons/breezeLight/actions/24/zoom-out.svg

<svg viewBox="0 0 24 24" xmlns="http://www.w3.org/2000/svg"><g fill="#4d4d4d"><path d="m5 5v9h5v5h9v-14z" fill-opacity=".501961"/><path d="m4 4v8h1v-7h14v14h-7v1h8v-16z"/><path d="m4 18v2h2v-1h-1v-1z"/><path d="m4 14v2h1v-1h1v-1z"/><path d="m8 14v1h1v1h1v-2z"/><path d="m9 18v1h-1v1h2v-2z"/><path d="m15.646484 7.6464844-3.646484 3.6464846v-2.292969h-1v4h4v-1h-2.292969l3.646485-3.6464844z"/></g></svg>

<?xml version="1.0" encoding="UTF-8" standalone="no"?>
<svg
   xmlns:dc="http://purl.org/dc/elements/1.1/"
   xmlns:cc="http://creativecommons.org/ns#"
   xmlns:rdf="http://www.w3.org/1999/02/22-rdf-syntax-ns#"
   xmlns:svg="http://www.w3.org/2000/svg"
   xmlns="http://www.w3.org/2000/svg"
   xmlns:sodipodi="http://sodipodi.sourceforge.net/DTD/sodipodi-0.dtd"
   xmlns:inkscape="http://www.inkscape.org/namespaces/inkscape"
   viewBox="0 0 24 24"
   version="1.1"
   id="svg6"
   sodipodi:docname="zoom-out.svg"
   inkscape:version="0.92.4 (5da689c313, 2019-01-14)">
  <metadata
     id="metadata10">
    <rdf:RDF>
      <cc:Work
         rdf:about="">
        <dc:format>image/svg+xml</dc:format>
        <dc:type
           rdf:resource="http://purl.org/dc/dcmitype/StillImage" />
        <dc:title />
      </cc:Work>
    </rdf:RDF>
  </metadata>
  <sodipodi:namedview
     pagecolor="#ffffff"
     bordercolor="#666666"
     borderopacity="1"
     objecttolerance="10"
     gridtolerance="10"
     guidetolerance="10"
     inkscape:pageopacity="0"
     inkscape:pageshadow="2"
     inkscape:window-width="1606"
     inkscape:window-height="1411"
     id="namedview8"
     showgrid="true"
     inkscape:zoom="39.333333"
     inkscape:cx="7.267763"
     inkscape:cy="7.7872819"
     inkscape:window-x="2013"
     inkscape:window-y="467"
     inkscape:window-maximized="0"
     inkscape:current-layer="svg6">
    <inkscape:grid
       type="xygrid"
       id="grid817"
       empspacing="8" />
  </sodipodi:namedview>
  <defs
     id="defs3051">
    <inkscape:perspective
       sodipodi:type="inkscape:persp3d"
       inkscape:vp_x="0 : 12 : 1"
       inkscape:vp_y="0 : 1000 : 0"
       inkscape:vp_z="24 : 12 : 1"
       inkscape:persp3d-origin="12 : 8 : 1"
       id="perspective829" />
    <style
       type="text/css"
       id="current-color-scheme">
      .ColorScheme-Text {
        color:#4d4d4d;
      }
      </style>
  </defs>
  <path
     style="fill:#4d4d4d;fill-opacity:0.50196078;stroke:none;stroke-opacity:1"
     d="M 5 5 L 5 14 L 10 14 L 10 19 L 19 19 L 19 5 L 5 5 z "
     id="rect820" />
  <path
     style="fill:#4d4d4d;fill-opacity:1;stroke:none;stroke-width:1.03279555"
     d="M 4 4 L 4 12 L 5 12 L 5 5 L 19 5 L 19 19 L 12 19 L 12 20 L 20 20 L 20 4 L 4 4 z "
     id="rect827" />
  <path
     style="fill:#4d4d4d;fill-opacity:1;stroke:none"
     d="M 4 18 L 4 20 L 6 20 L 6 19 L 5 19 L 5 18 L 4 18 z "
     id="rect848" />
  <path
     style="fill:#4d4d4d;fill-opacity:1;stroke:none"
     d="M 4 14 L 4 16 L 5 16 L 5 15 L 6 15 L 6 14 L 4 14 z "
     id="rect850" />
  <path
     style="fill:#4d4d4d;fill-opacity:1;stroke:none"
     d="M 8 14 L 8 15 L 9 15 L 9 16 L 10 16 L 10 14 L 8 14 z "
     id="rect852" />
  <path
     style="fill:#4d4d4d;fill-opacity:1;stroke:none"
     d="M 9 18 L 9 19 L 8 19 L 8 20 L 10 20 L 10 18 L 9 18 z "
     id="rect854" />
  <path
     style="fill:#4d4d4d;fill-opacity:1;stroke:none;stroke-width:1.33333337"
     d="M 15.646484 7.6464844 L 12 11.292969 L 12 9 L 11 9 L 11 13 L 15 13 L 15 12 L 12.707031 12 L 16.353516 8.3535156 L 15.646484 7.6464844 z "
     id="rect896" />
</svg>
